X:0057
M:2/4
L:1/16
Q:1/4=104
K:G
g2|dcBA GABc|dBGB d3`B| ABcd  BcAB| G2E2 E2:|
dc|B2G2 G2dc|B2G2 G2ed|^c2A2  A2fg| a2A2 A2

